static/assets/template/assets/img/icons/essential/detailed/Journal.svg

<svg height="149" viewBox="0 0 126 149" width="126" xmlns="http://www.w3.org/2000/svg"><g fill="none" fill-rule="evenodd" transform="translate(2 2)"><path d="m108.7 132.5h-79.3c-7.5 0-13.7-6.1-13.7-13.7v-104.7c0-7.5 6.1-13.7 13.7-13.7h79.3c7.5 0 13.7 6.1 13.7 13.7v104.7c0 7.5-6.2 13.7-13.7 13.7z" fill-rule="nonzero"/><path d="m108.7 132.5h-79.3c-7.5 0-13.7-6.1-13.7-13.7v-99.5c0-7.5 6.1-13.7 13.7-13.7h79.3c7.5 0 13.7 6.1 13.7 13.7v99.5c0 7.5-6.2 13.7-13.7 13.7z" fill-rule="nonzero"/><path d="m31.6 144.5-3.3-3.4c-.6-.6-1.5-.6-2.1 0l-3.7 3.5c-.6.5-1.5.1-1.5-.6v-14.9h12.1v14.8c0 .7-1 1.1-1.5.6z" fill-rule="nonzero" stroke-linecap="round" stroke-linejoin="round" stroke-width="3.2"/><path d="m89.4 132.5h-60c-7.5 0-13.7-6.1-13.7-13.7v-95.4" stroke-linecap="round" stroke-linejoin="round" stroke-width="3.2"/><path d="m38.9.5h69.8c7.5 0 13.7 6.1 13.7 13.7v104.7c0 7.5-6.1 13.7-13.7 13.7h-1.9" stroke-linecap="round" stroke-linejoin="round" stroke-width="3.2"/><path d="m107 14.1v104.7c0 7.5-6.1 13.7-13.7 13.7h-79.3c-7.5 0-13.7-6.1-13.7-13.7v-104.7c0-7.5 6.1-13.7 13.7-13.7h79.4c7.5.1 13.6 6.2 13.6 13.7z" fill-rule="nonzero"/><path d="m107 19.3v100.1c0 7.2-5.9 13.1-13.2 13.1h-76.4c-7.3 0-13.2-5.8-13.2-13.1v-100.1c0-7.2 5.9-13.1 13.2-13.1h76.4c7.3 0 13.2 5.9 13.2 13.1z" fill-rule="nonzero"/><path d="m107 19.3v93.5c0 7.2-5.9 13.1-13.2 13.1h-76.4c-7.3 0-13.2-5.8-13.2-13.1v-93.5c0-7.2 5.9-13.1 13.2-13.1h76.4c7.3 0 13.2 5.9 13.2 13.1z" fill-rule="nonzero"/><path d="m32.9.5h60.5c7.5 0 13.7 6.1 13.7 13.7v104.7c0 7.5-6.1 13.7-13.7 13.7h-79.4c-7.5 0-13.7-6.1-13.7-13.7v-104.7c0-7.5 6.1-13.7 13.7-13.7h3.7" stroke-linecap="round" stroke-linejoin="round" stroke-width="3.2"/><path d="m26.2.5h1.9" stroke-linecap="round" stroke-linejoin="round" stroke-width="3.2"/><path d="m66.7.5h12.3v132h-12.3z" fill-rule="nonzero"/><path d="m66.7.5h12.1v132h-12.1z" fill-rule="nonzero"/><g stroke-linecap="round" stroke-linejoin="round" stroke-width="3.2"><path d="m66.7 19.7v-5.1"/><path d="m66.7.5h12.1v132h-12.1v-102.9"/><path d="m72.9 85.7v36.7"/><path d="m72.9.5v69.2"/></g></g></svg>

<?xml version="1.0" encoding="UTF-8"?>
<svg width="126px" height="149px" viewBox="0 0 126 149" version="1.1" xmlns="http://www.w3.org/2000/svg" xmlns:xlink="http://www.w3.org/1999/xlink">
    <!-- Generator: Sketch 51.2 (57519) - http://www.bohemiancoding.com/sketch -->
    <title>Journal</title>
    <desc>Created with Sketch.</desc>
    <defs></defs>
    <g id="Page-1" stroke="none" stroke-width="1" fill="none" fill-rule="evenodd">
        <g id="Journal" transform="translate(2.000000, 2.000000)">
            <path d="M108.7,132.5 L29.4,132.5 C21.9,132.5 15.7,126.4 15.7,118.8 L15.7,14.1 C15.7,6.6 21.8,0.4 29.4,0.4 L108.7,0.4 C116.2,0.4 122.4,6.5 122.4,14.1 L122.4,118.8 C122.4,126.3 116.2,132.5 108.7,132.5 Z" id="Shape" class="fill-neutral" fill-rule="nonzero"></path>
            <path d="M108.7,132.5 L29.4,132.5 C21.9,132.5 15.7,126.4 15.7,118.8 L15.7,19.3 C15.7,11.8 21.8,5.6 29.4,5.6 L108.7,5.6 C116.2,5.6 122.4,11.7 122.4,19.3 L122.4,118.8 C122.4,126.3 116.2,132.5 108.7,132.5 Z" id="Shape" class="fill-primary-400" fill-rule="nonzero"></path>
            <path d="M31.6,144.5 L28.3,141.1 C27.7,140.5 26.8,140.5 26.2,141.1 L22.5,144.6 C21.9,145.1 21,144.7 21,144 L21,129.1 L33.1,129.1 L33.1,143.9 C33.1,144.6 32.1,145 31.6,144.5 Z" id="Shape" class="stroke-primary" stroke-width="3.2" class="fill-primary-400" fill-rule="nonzero" stroke-linecap="round" stroke-linejoin="round"></path>
            <path d="M89.4,132.5 L29.4,132.5 C21.9,132.5 15.7,126.4 15.7,118.8 L15.7,23.4" id="Shape" class="stroke-primary" stroke-width="3.2" stroke-linecap="round" stroke-linejoin="round"></path>
            <path d="M38.9,0.5 L108.7,0.5 C116.2,0.5 122.4,6.6 122.4,14.2 L122.4,118.9 C122.4,126.4 116.3,132.6 108.7,132.6 L106.8,132.6" id="Shape" class="stroke-primary" stroke-width="3.2" stroke-linecap="round" stroke-linejoin="round"></path>
            <path d="M107,14.1 L107,118.8 C107,126.3 100.9,132.5 93.3,132.5 L14,132.5 C6.5,132.5 0.3,126.4 0.3,118.8 L0.3,14.1 C0.3,6.6 6.4,0.4 14,0.4 L93.4,0.4 C100.9,0.5 107,6.6 107,14.1 Z" id="Shape" class="fill-neutral" fill-rule="nonzero"></path>
            <path d="M107,19.3 L107,119.4 C107,126.6 101.1,132.5 93.8,132.5 L17.4,132.5 C10.1,132.5 4.2,126.7 4.2,119.4 L4.2,19.3 C4.2,12.1 10.1,6.2 17.4,6.2 L93.8,6.2 C101.1,6.2 107,12.1 107,19.3 Z" id="Shape" class="fill-primary-200" fill-rule="nonzero"></path>
            <path d="M107,19.3 L107,112.8 C107,120 101.1,125.9 93.8,125.9 L17.4,125.9 C10.1,125.9 4.2,120.1 4.2,112.8 L4.2,19.3 C4.2,12.1 10.1,6.2 17.4,6.2 L93.8,6.2 C101.1,6.2 107,12.1 107,19.3 Z" id="Shape" class="fill-primary-100" fill-rule="nonzero"></path>
            <path d="M32.9,0.5 L93.4,0.5 C100.9,0.5 107.1,6.6 107.1,14.2 L107.1,118.9 C107.1,126.4 101,132.6 93.4,132.6 L14,132.6 C6.5,132.6 0.3,126.5 0.3,118.9 L0.3,14.2 C0.3,6.7 6.4,0.5 14,0.5 L17.7,0.5" id="Shape" class="stroke-primary" stroke-width="3.2" stroke-linecap="round" stroke-linejoin="round"></path>
            <path d="M26.2,0.5 L28.1,0.5" id="Shape" class="stroke-primary" stroke-width="3.2" stroke-linecap="round" stroke-linejoin="round"></path>
            <rect id="Rectangle-path" class="fill-neutral" fill-rule="nonzero" x="66.7" y="0.5" width="12.3" height="132"></rect>
            <rect id="Rectangle-path" class="fill-primary-400" fill-rule="nonzero" x="66.7" y="0.5" width="12.1" height="132"></rect>
            <path d="M66.7,19.7 L66.7,14.6" id="Shape" class="stroke-primary" stroke-width="3.2" stroke-linecap="round" stroke-linejoin="round"></path>
            <polyline id="Shape" class="stroke-primary" stroke-width="3.2" stroke-linecap="round" stroke-linejoin="round" points="66.7 0.5 78.8 0.5 78.8 132.5 66.7 132.5 66.7 29.6"></polyline>
            <path d="M72.9,85.7 L72.9,122.4" id="Shape" class="stroke-primary" stroke-width="3.2" stroke-linecap="round" stroke-linejoin="round"></path>
            <path d="M72.9,0.5 L72.9,69.7" id="Shape" class="stroke-primary" stroke-width="3.2" stroke-linecap="round" stroke-linejoin="round"></path>
        </g>
    </g>
</svg>
